images/icons/call.svg

<?xml version="1.0" encoding="UTF-8"?>
<svg width="20px" height="20px" viewBox="0 0 20 20" version="1.1" xmlns="http://www.w3.org/2000/svg" xmlns:xlink="http://www.w3.org/1999/xlink">
    <title>Shape</title>
    <g id="Design" stroke="none" stroke-width="1" fill="none" fill-rule="evenodd">
        <g id="XS" transform="translate(-322.000000, -614.000000)" fill="#FFFFFF" fill-rule="nonzero">
            <g id="Group-30" transform="translate(304.000000, 596.000000)">
                <path d="M32.373993,38 C31.7283914,38 31.0882584,37.8858641 30.4623045,37.6584515 C27.7046701,36.6566957 25.1449973,35.025122 23.0599167,32.9400903 C20.974836,30.8550587 19.3432545,28.295359 18.341533,25.5377377 C18.0196307,24.6515241 17.9246341,23.7367178 18.0592777,22.8186305 C18.1854059,21.9586658 18.5185188,21.1238172 19.0226412,20.4043154 C19.52899,19.6816498 20.2040436,19.0805807 20.9747969,18.6661055 C21.7967203,18.2241314 22.6938362,18 23.6413018,18 C23.9359787,18 24.1906569,18.20589 24.2524125,18.4940032 L25.2333926,23.0719013 C25.277805,23.2791975 25.2140964,23.4948918 25.064219,23.6448075 L23.3879907,25.3209888 C24.9692615,28.4648442 27.535106,31.0306765 30.6789764,32.6119397 L32.3551656,30.9357194 C32.505082,30.7858428 32.7208164,30.7222126 32.9280745,30.7665467 L37.5059945,31.7475221 C37.7941481,31.8092774 38,32.0639544 38,32.3586298 C38,33.306091 37.7758675,34.2032417 37.3338523,35.0251611 C36.9193751,35.7959107 36.3183032,36.4709612 35.595634,36.9773076 C34.8761679,37.4814275 34.0413154,37.8145389 33.1813075,37.9406665 C32.9118251,37.9802352 32.6423817,38 32.373993,38 L32.373993,38 Z" id="Shape"></path>
            </g>
        </g>
    </g>
</svg>

<svg width="20" height="20" xmlns="http://www.w3.org/2000/svg"><g id="Design" stroke="none" stroke-width="1" fill="none" fill-rule="evenodd"><g id="XS" transform="translate(-322 -614)" fill="#FFF" fill-rule="nonzero"><g id="Group-30" transform="translate(304 596)"><path d="M32.374 38a5.572 5.572 0 01-1.912-.342 20.385 20.385 0 01-7.402-4.718 20.384 20.384 0 01-4.718-7.402 5.532 5.532 0 01-.283-2.72 5.663 5.663 0 012.916-4.152A5.57 5.57 0 0123.64 18c.295 0 .55.206.611.494l.981 4.578a.625.625 0 01-.169.573l-1.676 1.676a16.451 16.451 0 007.291 7.29l1.676-1.675a.625.625 0 01.573-.17l4.578.982a.625.625 0 01.494.61 5.57 5.57 0 01-.666 2.667 5.662 5.662 0 01-4.153 2.916c-.27.04-.539.059-.807.059z" id="Shape"/></g></g></g></svg>
